X: 125
T:Dance of the Yao People
C:Liu Tieshan and Mao Yuan, 1952 
M:2/4
L:1/8
P:AABABCCAD
K:GMin
P:A
Q:1/4=76
Gd      dG         |(c3     B)|Ac      BA         |(G>F D2)|\
G>A     Bc         | df   (dc)|B(c/d/) cB         | G4    ||
P:B
Q:1/4=76
FF/G/   BG         | BB/c/ df |d(d/f/) c(d/f/)    | d4     |\
Gd      Gd         | Gc    Gc |B(c/d/) cB         | G4    ||
P:C
Q:1/4=120
Gd     (c/d/)(c/B/)| GB    G2 |Gd     (c/d/)(c/B/)| GB  G2 |\
G(G/B/) c(c/B/)    | cf    d2 |c(d/c/) B(c/B/)    | G2  G2||
P:D
Q:1/4=68
B2     (cd)        | c2    B2 |G4-                | G4    |]

